images/soccer.svg

<svg version="1.0" width="16" height="16" xmlns="http://www.w3.org/2000/svg">
  <path style="fill:none;fill-opacity:.969048;fill-rule:evenodd;stroke:#fff;stroke-width:3;stroke-linecap:round;stroke-linejoin:round;stroke-miterlimit:10;stroke-dasharray:none;stroke-opacity:.5" d="M8 1.5A6.503 6.503 0 0 0 1.5 8c0 3.588 2.912 6.5 6.5 6.5s6.5-2.912 6.5-6.5S11.588 1.5 8 1.5zm-.488.54 1.355 1.177L8.51 4.72l-1.506.734-1.906-.53L4.814 3.7l.73-1.158 1.968-.502zm3.377.628 1.746 1.504-.492 1.879-1.594.25-1.494-1.567.24-1.423 1.594-.643zm-6.284.28c-.062.255-.123.51-.181.767l-.877.236c.07-.135.16-.259.265-.375a1.45 1.45 0 0 1 .329-.346c.137-.112.274-.199.464-.283zm.282 2.466 1.758.516.447 2-1.834 1.49-1.596-.047-.402-2.225 1.627-1.734zm7.476 1.135.897 1.582-1.237 2.144-1.55-.154-.569-1.361.953-1.928 1.506-.283zm-10.521.539.926.312.492 2.159-.6 1.13c-.142.061-.274-.097-.416-.423a7.137 7.137 0 0 1-.433-1.596 5.256 5.256 0 0 1 .03-1.582zm12.256.869c.004.54-.037.996-.121 1.457a6.37 6.37 0 0 1-.403 1.205c-.15.316-.287.54-.447.69l-.719-.875 1.254-2.225.436-.252zm-6.653.36 2 .548.637 1.578-1.103 1.522-2.49-.549-.82-1.723 1.776-1.377zm-1.16 3.49 2.64.488.759 1.22-.19.534a9.09 9.09 0 0 1-2.371.06 6.78 6.78 0 0 1-1.152-.298 3.183 3.183 0 0 1-.832-.436l-.032-.629 1.178-.94z" />
  <path style="fill:#000;fill-opacity:1;fill-rule:evenodd;stroke:none;stroke-width:3;stroke-linecap:round;stroke-linejoin:round;stroke-miterlimit:10;stroke-dasharray:none;stroke-opacity:.5" d="M8 1.5A6.503 6.503 0 0 0 1.5 8c0 3.588 2.912 6.5 6.5 6.5s6.5-2.912 6.5-6.5S11.588 1.5 8 1.5zm-.488.54 1.355 1.177L8.51 4.72l-1.506.734-1.906-.53L4.814 3.7l.73-1.158 1.968-.502zm3.377.628 1.746 1.504-.492 1.879-1.594.25-1.494-1.567.24-1.423 1.594-.643zm-6.284.28c-.062.255-.123.51-.181.767l-.877.236c.07-.135.16-.259.265-.375a1.45 1.45 0 0 1 .329-.346c.137-.112.274-.199.464-.283zm.282 2.466 1.758.516.447 2-1.834 1.49-1.596-.047-.402-2.225 1.627-1.734zm7.476 1.135.897 1.582-1.237 2.144-1.55-.154-.569-1.361.953-1.928 1.506-.283zm-10.521.539.926.312.492 2.159-.6 1.13c-.142.061-.274-.097-.416-.423a7.137 7.137 0 0 1-.433-1.596 5.256 5.256 0 0 1 .03-1.582zm12.256.869c.004.54-.037.996-.121 1.457a6.37 6.37 0 0 1-.403 1.205c-.15.316-.287.54-.447.69l-.719-.875 1.254-2.225.436-.252zm-6.653.36 2 .548.637 1.578-1.103 1.522-2.49-.549-.82-1.723 1.776-1.377zm-1.16 3.49 2.64.488.759 1.22-.19.534a9.09 9.09 0 0 1-2.371.06 6.78 6.78 0 0 1-1.152-.298 3.183 3.183 0 0 1-.832-.436l-.032-.629 1.178-.94z" />
</svg>

<?xml version="1.0" encoding="UTF-8" standalone="no"?>
<svg version="1.0" width="16" height="16" id="svg2" sodipodi:docname="soccer.svg" inkscape:version="1.4.2 (ebf0e940d0, 2025-05-08)" xmlns:inkscape="http://www.inkscape.org/namespaces/inkscape" xmlns:sodipodi="http://sodipodi.sourceforge.net/DTD/sodipodi-0.dtd" xmlns="http://www.w3.org/2000/svg" xmlns:svg="http://www.w3.org/2000/svg">
  <defs id="defs2" />
  <sodipodi:namedview id="namedview2" pagecolor="#ffffff" bordercolor="#666666" borderopacity="1.0" inkscape:showpageshadow="2" inkscape:pageopacity="0.0" inkscape:pagecheckerboard="true" inkscape:deskcolor="#d1d1d1" showgrid="true" inkscape:zoom="64.875" inkscape:cx="8" inkscape:cy="8" inkscape:window-width="2154" inkscape:window-height="1206" inkscape:window-x="0" inkscape:window-y="0" inkscape:window-maximized="1" inkscape:current-layer="svg2">
    <inkscape:grid id="grid2" units="px" originx="0" originy="0" spacingx="1" spacingy="1" empcolor="#0000ff" empopacity="0.25098039" color="#0000ff" opacity="0.1254902" empspacing="5" enabled="true" visible="true" />
  </sodipodi:namedview>
  <path style="fill:#000000;fill-opacity:1;fill-rule:evenodd;stroke:#ffffff;stroke-width:3;stroke-linecap:round;stroke-linejoin:round;stroke-miterlimit:10;stroke-dasharray:none;stroke-opacity:0.5;paint-order:stroke fill markers" d="M 8,1.5 A 6.503,6.503 0 0 0 1.5,8 C 1.5,11.588 4.412,14.5 8,14.5 C 11.588,14.5 14.5,11.588 14.5,8 C 14.5,4.412 11.588,1.5 8,1.5 Z M 7.512,2.04 L 8.867,3.217 L 8.51,4.72 L 7.004,5.454 L 5.098,4.924 L 4.814,3.7 L 5.544,2.542 Z M 10.889,2.668 L 12.635,4.172 L 12.143,6.051 L 10.549,6.301 L 9.055,4.734 L 9.295,3.311 Z M 4.605,2.948 C 4.543,3.203 4.482,3.458 4.424,3.715 L 3.547,3.951 C 3.617,3.816 3.707,3.692 3.812,3.576 A 1.45,1.45 0 0 1 4.141,3.23 C 4.278,3.118 4.415,3.031 4.605,2.947 Z M 4.887,5.414 L 6.645,5.93 L 7.092,7.93 L 5.258,9.42 L 3.662,9.373 L 3.26,7.148 Z M 12.363,6.549 L 13.26,8.131 L 12.023,10.275 L 10.473,10.121 L 9.904,8.76 L 10.857,6.832 Z M 1.842,7.088 L 2.768,7.4 L 3.26,9.559 L 2.66,10.689 C 2.518,10.75 2.386,10.592 2.244,10.266 A 7.137,7.137 0 0 1 1.811,8.67 A 5.256,5.256 0 0 1 1.841,7.088 Z M 14.098,7.957 C 14.102,8.497 14.061,8.953 13.977,9.414 A 6.37,6.37 0 0 1 13.574,10.619 C 13.424,10.935 13.287,11.159 13.127,11.309 L 12.408,10.434 L 13.662,8.209 Z M 7.445,8.317 L 9.445,8.865 L 10.082,10.443 L 8.979,11.965 L 6.489,11.416 L 5.669,9.693 L 7.445,8.316 Z M 6.285,11.807 L 8.925,12.295 L 9.684,13.515 L 9.494,14.049 A 9.09,9.09 0 0 1 7.123,14.109 A 6.78,6.78 0 0 1 5.971,13.811 A 3.183,3.183 0 0 1 5.139,13.375 L 5.107,12.746 L 6.285,11.806 Z" id="path2" />
</svg>
